!!!OTL: My Boy Tammy 
!!!id: HA018
**kern
*clefF4
*k[f#c#]
*D:
*M2/2
{8.d
16e
8.f#
16g
8.a
16b
4cc#}
=2yy
{8.g
16a
8.g
16f#
16e
8.c#
4c#}
=3yy
{8.d
16e
8.f#
16g
4a
4cc#}
=4yy
{16a
8.ff#
8.ee
16dd
8a
4dd}
{8dd
=5
8.dd
16ee
8.ff#
16dd
8.cc#
16b
4a}
=6yy
{8.f#
16a
8.cc#
16a
8.g
16e
4c#}
=7yy
{8.dd
16ff#
8.ee
16ff#
4dd
4a}
=8yy
{8.f#
16g
8.a
16g
8f#
4.d}
==
*-
!!!minrhy: 16
!!!meter: 2/2 
!!!cut: My Boy Tammy 
!!!key: HA018  16  d 2/2 
!!!fog: a--b--av-c--d--e--f--g--
!! Haydn: Volksliedbearbeitungen, Bd1
